X: 11028
T: EILEEN'S MARCH
C: Bob McQuillen 28 Jan'00
B: Bob's Note Book 11 #28
%R: march
Z: 2020 John Chambers <jc:trillian.mit.edu>
M: C
L: 1/4
K: D
A FG \
| A2 d2 | f3 e | d>e dB | A3 B | A>B cd | e3  B | A>d fd | ed Bd |
| AF Ad | f3 e | d>e dB | A3 B | A>B ed | cA Bc | d2 d>c | d :|
|: e dc \
| B>G Bc | d>e dB | A>B AG | F3  A | G>A GF | EF GA | B2 A>F | DF GA |
| B>G Bc | ed  cB | A>B AG | F2 A2 | B>d ed | cA fe | d2 d>d | d :|
%%begintext align
%% Eileen Roys is a
%% great autoharp player from Stevensville, MD.
%% She was a friend of Pete Colby, and I see her
%% every summer at Augusta. I should have got
%% this tune out for you long ago, Eileen - I sure
%% hope you like it! Much love to you from Bob -
%%endtext

%%sep 1 1 500

%%sep 1 1 500

